assets/svg/idcard.svg

<?xml version="1.0" encoding="UTF-8"?>
<svg width="1000px" height="1000px" viewBox="0 0 1000 1000" version="1.1" xmlns="http://www.w3.org/2000/svg" xmlns:xlink="http://www.w3.org/1999/xlink">
    <!-- Generator: sketchtool 52.4 (67378) - http://www.bohemiancoding.com/sketch -->
    <title>idcard</title>
    <desc>Created with sketchtool.</desc>
    <g id="旧版图标(剩余)" stroke="none" stroke-width="1" fill="none" fill-rule="evenodd">
        <g id="idcard" fill="#333333">
            <path d="M71.4285714,142.416667 L71.4285714,856.583333 L928.571429,856.583333 L928.571429,142.416667 L71.4285714,142.416667 Z M71.4285714,71 L928.571429,71 C968.020339,71 1000,102.974331 1000,142.416667 L1000,856.583333 C1000,896.025669 968.020339,928 928.571429,928 L71.4285714,928 C31.9796607,928 4.83109822e-15,896.025669 0,856.583333 L0,142.416667 C-4.83109822e-15,102.974331 31.9796607,71 71.4285714,71 Z" id="Rectangle-5" fill-rule="nonzero"></path>
            <path d="M178.5,571 L821.5,571 C841.106109,571 857,586.893891 857,606.5 C857,626.106109 841.106109,642 821.5,642 L178.5,642 C158.893891,642 143,626.106109 143,606.5 C143,586.893891 158.893891,571 178.5,571 Z M178.5,357 L536.5,357 C556.106109,357 572,372.893891 572,392.5 C572,412.106109 556.106109,428 536.5,428 L178.5,428 C158.893891,428 143,412.106109 143,392.5 C143,372.893891 158.893891,357 178.5,357 Z" id="Combined-Shape"></path>
        </g>
    </g>
</svg>

<svg width="1000" height="1000" xmlns="http://www.w3.org/2000/svg"><g fill="#333" fill-rule="evenodd"><path d="M71.429 142.417v714.166H928.57V142.417H71.43zm0-71.417H928.57c39.45 0 71.429 31.974 71.429 71.417v714.166c0 39.443-31.98 71.417-71.429 71.417H71.43C31.979 928 0 896.026 0 856.583V142.417C0 102.974 31.98 71 71.429 71z" fill-rule="nonzero"/><path d="M178.5 571h643c19.606 0 35.5 15.894 35.5 35.5S841.106 642 821.5 642h-643c-19.606 0-35.5-15.894-35.5-35.5s15.894-35.5 35.5-35.5zm0-214h358c19.606 0 35.5 15.894 35.5 35.5S556.106 428 536.5 428h-358c-19.606 0-35.5-15.894-35.5-35.5s15.894-35.5 35.5-35.5z"/></g></svg>
